shader cartesianToHyperbolicLike(
    vector Cartesian = vector(0,0,0),
    output vector Polar = vector(0,0,0)
    )
{
    vector temp = vector(0,0,0);
    temp.x = (atan2(Cartesian.y, Cartesian.x));
    temp.y = sqrt(Cartesian.x*Cartesian.x + Cartesian.y*Cartesian.y);
    
    Polar.y = temp.y * abs(cosh(temp.x));
    Polar.x = temp.x * abs(sinh(temp.x));
}

