shader cartesianToHyperbolic(
    vector Cartesian = vector(0,0,0),
    output vector Hyperbolic = vector(0,0,0)
    )
{
    float sign (float f) {
        if (f < 0) return -1;
        if (f > 0) return 1;
        return 0;
    };
    vector out = vector(0,0,0);
    vector in = Cartesian;
    
    if (in.x > 0 && in.y <= 0) in.y *= -1;
    if (in.x < 0 && in.y >= 0) in.y *= -1;
    
    Hyperbolic.y = sqrt( sign(in.x + in.y) * sign(in.y - in.x) * (in.y*in.y - in.x*in.x) / 2 );
    Hyperbolic.x = sqrt( sign(in.x) * sign(in.y) * in.x * in.y);
}

